build/svg/formula/res/refinp1.svg

<?xml version="1.0" encoding="UTF-8" standalone="no"?>
<svg
   xmlns:dc="http://purl.org/dc/elements/1.1/"
   xmlns:cc="http://creativecommons.org/ns#"
   xmlns:rdf="http://www.w3.org/1999/02/22-rdf-syntax-ns#"
   xmlns:svg="http://www.w3.org/2000/svg"
   xmlns="http://www.w3.org/2000/svg"
   xmlns:sodipodi="http://sodipodi.sourceforge.net/DTD/sodipodi-0.dtd"
   xmlns:inkscape="http://www.inkscape.org/namespaces/inkscape"
   viewBox="0 0 16 16"
   version="1.1"
   id="svg4"
   sodipodi:docname="refinp1.svg"
   inkscape:export-filename="/home/jupiter007/Libreoffice yaru theme fullcolor/build/formula/res/refinp1.png"
   inkscape:export-xdpi="96"
   inkscape:export-ydpi="96"
   inkscape:version="0.92.5 (2060ec1f9f, 2020-04-08)">
  <metadata
     id="metadata10">
    <rdf:RDF>
      <cc:Work
         rdf:about="">
        <dc:format>image/svg+xml</dc:format>
        <dc:type
           rdf:resource="http://purl.org/dc/dcmitype/StillImage" />
      </cc:Work>
    </rdf:RDF>
  </metadata>
  <defs
     id="defs8" />
  <sodipodi:namedview
     pagecolor="#ffffff"
     bordercolor="#666666"
     borderopacity="1"
     objecttolerance="10"
     gridtolerance="10"
     guidetolerance="10"
     inkscape:pageopacity="0"
     inkscape:pageshadow="2"
     inkscape:window-width="1920"
     inkscape:window-height="1011"
     id="namedview6"
     showgrid="true"
     inkscape:zoom="29.5"
     inkscape:cx="6.6652212"
     inkscape:cy="6.3027466"
     inkscape:window-x="0"
     inkscape:window-y="32"
     inkscape:window-maximized="1"
     inkscape:current-layer="svg4">
    <inkscape:grid
       type="xygrid"
       id="grid835" />
  </sodipodi:namedview>
  <path
     d="m 3.9737504,1.4999992 c -0.817,0 -1.474,0.657 -1.474,1.474 L 2.5000004,9.5 H 13.5 l -2.5e-4,-6.5260008 c -3.1e-5,-0.817 -0.657,-1.474 -1.474,-1.474 z"
     id="path22"
     inkscape:connector-curvature="0"
     style="fill:#ffffff;stroke:#8c8c8c"
     sodipodi:nodetypes="ssccsss" />
  <path
     d="M 2.9997504,5.9999992 H 12.99975 L 13,9 H 3.0000004 Z"
     id="path26"
     inkscape:connector-curvature="0"
     style="fill:#ffffff"
     sodipodi:nodetypes="ccccc" />
  <path
     d="M 2.9997504,5.4999992 H 12.99975"
     id="path28"
     inkscape:connector-curvature="0"
     style="fill:none;stroke:#8c8c8c"
     sodipodi:nodetypes="cc" />
  <path
     style="fill:#8c8c8c;stroke-width:2"
     d="m 8.99925,2.9999992 h -2 v 2 h 2 z"
     id="path841"
     inkscape:connector-curvature="0"
     sodipodi:nodetypes="ccccc" />
  <path
     style="fill:#ff0000;stroke-width:2.0002501"
     d="M 11.99975,2.9999992 H 9.9992497 v 2 H 11.99975 Z"
     id="path30"
     inkscape:connector-curvature="0"
     sodipodi:nodetypes="ccccc" />
  <path
     style="opacity:0.6;fill:#000000;fill-opacity:1;stroke:#000000;stroke-width:2;stroke-linecap:butt;stroke-linejoin:round;stroke-miterlimit:4;stroke-dasharray:none;stroke-opacity:1"
     d="m 15.0001,11.999999 h -2 V 15 h -2 V 11.999999 H 9.0001002 L 12.0001,7.9999992 Z"
     id="path856"
     inkscape:connector-curvature="0" />
  <path
     inkscape:connector-curvature="0"
     style="fill:#e97cc8;fill-opacity:1;stroke:none;stroke-width:1px;stroke-linecap:butt;stroke-linejoin:miter;stroke-opacity:1"
     d="M 12.0001,7.9998992 9.0001002,11.999899 H 11.0001 l 10e-5,3.000001 h 2 l -10e-5,-3.000001 h 2 z"
     id="path834-1"
     sodipodi:nodetypes="cccccccc" />
</svg>

<svg xmlns="http://www.w3.org/2000/svg" viewBox="0 0 16 16"><path d="M3.974 1.5A1.47 1.47 0 002.5 2.974V9.5h11V2.974A1.47 1.47 0 0012.026 1.5z" fill="#fff" stroke="#8c8c8c"/><path d="M3 6h10v3H3z" fill="#fff"/><path d="M3 5.5h10" fill="none" stroke="#8c8c8c"/><path d="M9 3H7v2h2z" fill="#8c8c8c"/><path d="M12 3h-2v2h2z" fill="red"/><path d="M15 12h-2v3h-2v-3H9l3-4z" opacity=".6" stroke="#000" stroke-width="2" stroke-linejoin="round"/><path d="M12 8l-3 4h2v3h2v-3h2z" fill="#e97cc8"/></svg>
